static/EX.svg

<svg fill="none" height="109" viewBox="0 0 181 109" width="181" xmlns="http://www.w3.org/2000/svg"><path d="m.6.719999h67.36v12.960001h-52.16v34.4h46.88v13.12h-46.88v39.52h53.92v13.28h-69.12zm179.745 113.280001h-17.6l-33.6-46.88-33.44 46.88h-17.44l42.08-59.2-38.88-54.080001h17.6l30.72 42.880001 30.72-42.880001h17.44l-39.2 55.200001z" fill="#fff"/></svg>

<svg width="181" height="109" viewBox="0 0 181 109" fill="none" xmlns="http://www.w3.org/2000/svg">
<path d="M0.6 0.719999H67.96V13.68H15.8V48.08H62.68V61.2H15.8V100.72H69.72V114H0.6V0.719999ZM180.345 114H162.745L129.145 67.12L95.705 114H78.265L120.345 54.8L81.465 0.719999H99.065L129.785 43.6L160.505 0.719999H177.945L138.745 55.92L180.345 114Z" fill="white"/>
</svg>
